X: 29111
T: Nell O'Sullivan's
R: slide
M: 12/8
K: Dmajor
|:Bcd A2F A3 A2d|Bcd A2F E3 E2d|
Bcd A2F A3 A2d|1 Bcd efe d3 d2c:|2 Bcd efe d3 d2e||
|:f2e d2f a3 a2f|g2f e2f g3 gfe|
f2e d2f a2f a2f|1 efg f2e d3 d2e:|2 efg f2e d3 d2c||

